X: 1125
T: Hüzzam Sazsemâîsi
C: Udî Nevres Bey
O: Turkey
F: http://compmusic.upf.edu/node/140
N: huzzam--sazsemaisi--aksaksemai----udi_nevres_bey
N: makam= huzzam
N: form= sazsemaisi
N: usul= aksaksemai = 10/8
M: 10/8
L: 1/16
K: C _1/4B _3/4e ^3/4f 
Q: 1/4=120
%%MIDI tuningsystem comma53
z4 z2z4B2 c2.d4.d2  | d4 e/d/ec3Bf2 edd4c2  | \
w:   |   | 
d4 e2de dcB^A Bcd4z2  | 
w:   | 
d4 e/d/ec3Bf2 edd4z2  | eded cde2 def2 efg4fg  | 
w:   |   | 
a2gf efg2 fedc def4ed  | e4 d2a2 gffe edd6  | 
w:   |   | 
g4 gffe eddc {_b}agg4z2  | agfe {a}gff4{a}g3/2f/ ed{g}fe e4  | 
w:  TESLİM  |   | 
f3/2e/dc {f}edd4B2 d2c3/2B/ AcBA  | \
w:   | 
G2B2 d2g2 b2d'2 c'2a2 f2d2  | 
w:   | 
c'2a2 f2d2 B2dc B/A/Ga4gf  | f2ef g4 fee2 def4ed  | 
w:   |   | 
d2cd e2dc cB.B4B6  | g4 =f_1/4ed3c{_7/8e}dc B^AB6  | \
w:   |  2. HANE  | 
B6f4g2 ^a2b4ag  | 
w:   | 
f4 g2^a4g2 a2b4z2  | d'4 d'^c'c'b b^aag gff6  | \
w:   |   | 
c'4 _b^a=ag2bag fag4f2  | 
w:   | 
g4 f2g2 f2c'_b agf4ed  | e4 d2gf {a}gfg/f/e edd6  | 
w:   |   | 
g4 gffe eddc {_b}agg4z2  | agfe {a}gff4{a}g3/2f/ ed{g}fe e4  | 
w:  TESLİM  |   | 
f3/2e/dc {f}edd4B2 d2c3/2B/ AcBA  | \
w:   | 
G2B2 d2g2 b2d'2 c'2a2 f2d2  | 
w:   | 
c'2a2 f2d2 B2dc B/A/Ga4gf  | f2ef g4 fee2 def4ed  | 
w:   |   | 
d2cd e2dc cB.B4B6  | f4 g2.f4^e2 f2ed ^c2d^3/4e  | \
w:   |  3. HANE  | 
d^cB2 cd{e}dc2Bd/c/B B^AB2 czAG  | 
w:   | 
^F4 G2^A2 z2G2 A2B4z2  | ^c4 d2^e4d2 e2f6  | \
w:   |   | 
f4 g2a2 z2f2 a2g2 =f2=e2  | 
w:   | 
d4 =e2d2 {a}g=fe3/2d/ cdc4B2  | e4 edd2 cBf2 edd6  | 
w:   |   | 
g4 gffe eddc {_b}agg4z2  | agfe {a}gff4{a}g3/2f/ ed{g}fe e4  | 
w:  TESLİM  |   | 
f3/2e/dc {f}edd4B2 d2c3/2B/ AcBA  | \
w:   | 
G2B2 d2g2 b2d'2 c'2a2 f2d2  | 
w:   | 
c'2a2 f2d2 B2dc B/A/Ga4gf  | f2ef g4 fee2 def4ed  | 
w:   |   | 
d2cd e2dc cB.B4B6  | z12  | B6_1/4e4ed  | \
w:   |  |  4. HANE  | 
{_1/4e}d4c2{e}d2c2cB  | 
w:   | 
B6z4z2  | B6f6  | g6^9/8f2=e2^d2  | =e6z4z2  | \
w:   |   |   |   | 
b6b2^a2g2  | ^a2b2c'2b2a2g2  | 
w:   |   | 
^9/8f2g2a2g2f2=e2  | ^d2=e2^9/8f2d2c2=B2  | \
w:   |   | 
A2=B2G2^9/8F2=E2^D2  | =E6z4z2  | 
w:   |   | 
=e6a6  | g4=f2g2f2f_1/4e  | _1/4e6e6  | \
w:   |   |   | 
z6b6  | c'6=b2a2^g2  | a6z4z2  | =e'6e'2^d'2c'2  | 
w:   |   |   |   | 
^d'2=e'2=f'2e'2d'2c'2  | =b2c'2^d'2c'2b2a2  | \
w:   |   | 
^g2a2=b2g2=f2=e2  | d2=e2c2=B2A2^G2  | 
w:   |   | 
A6z6  | g3/2^9/8f/gagf=e3/2^d/efed  | \
w:   |   | 
c3/2=B/c^d=e^9/8fedcBA2  | 
w:   | 
d3/2^c/d=edc=B3/2^A/BcBA  | G3/2^9/8F/G^A=B^3/4cBAGF=E2  | 
w:   |   | 
b3/2^a/bc'bag3/2f/gagf  | _1/4e3/2^d/efg^agfedcB  | 
w:   |   | 
c'2b2^a2g2g2a2  | b6z4z2  | c'6c'2b2^a2  | \
w:   |   |   | 
b6b2^a2g2  | c'2b2^a2bag2gf  | 
w:   |   | 
f6z6  | g2fgfga6  | f2efefg6  | e2dedef6  | \
w:   |   |   |   | 
d4c2B6  | 
w:   | 
z20  | g4 =f=ed3ce/d/c cBB4z2  | |


